X: 23
T:Bourree Hansi
M:2/4
L:1/16
R:Bourree
Z:Steve Mansfield
K:C
c4G2c2 | d4G2d2 | _edcd _e2c2 | d_edc B2G2 | c4G2c2 | d4G2d2 |
_edcd _e2f2 | g8 :: c2e2g2e2 | c2e2d4 | dedc B2G2 |
cBcd e2c2 | c2e2g2e2 | c2e2d4 | dedc B2G2 | c8 :|
<end>
<start>
